!!!COM: Bach, Johann Sebastian
!!!CDT: 1685/02/21/-1750/07/28/
!!!OTL@@DE: Komm, heiliger Geist, Herre Gott
!!!SCT: BWV 226
!!!PC#: 69
!!!AGN: chorale
**harm	**kern	**kern	**kern	**kern
*	*ICvox	*ICvox	*ICvox	*ICvox
*	*Ibass	*Itenor	*Ialto	*Isoprn
*	*I"Bass	*I"Tenor	*I"Alto	*I"Soprano
*	*	*oclefC4	*oclefC3	*oclefC1
*	*clefF4	*clefGv2	*clefG2	*clefG2
*k[f#]	*k[f#]	*k[f#]	*k[f#]	*k[f#]
*G:	*G:	*G:	*G:	*G:
*M4/4	*M4/4	*M4/4	*M4/4	*M4/4
*met(c)	*met(c)	*met(c)	*met(c)	*met(c)
*MM100	*MM100	*MM100	*MM100	*MM100
I	4G	4B	4g	4dd
=1	=1	=1	=1	=1
IV	4C	4c	4g	4ee
V7	4D	4A	4f#	4cc
vi	4E	4G	4g	4b
I6	4BB	4G	4d	4dd
=2	=2	=2	=2	=2
V;	2D;	2d;	2f#;	2a;
I	4G	4d	4g	4b
viio6/V	4E	4G	4g	4cc#
=3	=3	=3	=3	=3
V;	2D;	2A;	2f#;	2dd;
.	4r	4ry	4ry	4r
I6	4BB	4G	4g	4dd
=4	=4	=4	=4	=4
IV	4C	4c	4g	4ee
V	4D	4A	4f#	4dd
V2	8CL	8F#L	8dL	8aL
I6	8BBJ	8GJ	8dJ	8bJ
ii	8AAL	8CL	8eL	8ccL
viio6	8AAJ	8CJ	8f#J	8ccJ
=5	=5	=5	=5	=5
I6	4BB	4D	4g	4b
V7	4D	4c	4f#	4a
I;	4GG;	4B;	4d;	4g;
I	4G	4B	4d	4g
=6	=6	=6	=6	=6
V6	4F#	4A	4d	4a
IV6	8EL	8GL	8eL	8ccL
vii%7	8F#J	8AJ	8eJ	8ccJ
I	4G	4B	4d	4b
V6	4F#	4A	4f#	4dd
=7	=7	=7	=7	=7
V6	4F#	4A	4f#	4dd
V	4D	4d	4f#	4a
D:IV6	4BB	4d	4d	4g
V7	4AA	4G	4c#	4e
=8	=8	=8	=8	=8
I;	2D;	2F#;	2A;	2d;
.	4r	4ry	4ry	4r
D:V2	4CnX	4F#	4A	4d
=9	=9	=9	=9	=9
I6	4BB	4G	4d	4g
viio6	4AA	4c	4f#	4a
I	4GG	4d	4g	4b
I	8GL	8BL	8gL	8ddL
a:iv6	8FJ	8AJ	8aJ	8ddJ
=10	=10	=10	=10	=10
V7	4E	4G#	4b	4dd
i	4AA	4E	4a	4cc
e:V	4BB	4D#	4f#	4b
iv6	4C	4E	4e	4a
=11	=11	=11	=11	=11
V;	2BB;	2F#;	2d#;	2b;
.	4r	4ry	4ry	4r
i	4E	4GnX	4g	4b
=12	=12	=12	=12	=12
v	8BL	8BL	8f#L	8ddnXL
D:viio6/V	8BJ	8BJ	8g#J	8ddJ
V	8AL	8c#L	8aL	8eeL
V2	8GJ	8c#J	8aJ	8eeJ
I6	4F#	4d	4a	4dd
I	8DL	8dL	8f#L	8aL
V7/IV	8DJ	8cJ	8eJ	8aJ
=13	=13	=13	=13	=13
IV	4G	4B	4d	4b
viio6	4E	4G	4e	4cc#
I;	4D;	4A;	4f#;	4dd;
G:I	4G	4B	4g	4dd
=14	=14	=14	=14	=14
IV	4CnX	4cnX	4e	4ee
I6	4BB	4d	4g	4dd
V	4D	4d	4f#	4a
IV6	8EL	8GL	8eL	8ccnXL
vii%7	8F#J	8AJ	8eJ	8ccJ
=15	=15	=15	=15	=15
I	4G	4B	4d	4b
V7	4D	4c	4f#	4a
I;	4GG;	4B;	4d;	4g;
IV	4C	4c	4e	4g
=16	=16	=16	=16	=16
ii	4AA	4c	4e	4a
viio6	4A	4A	4f#	4cc
vi	4E	4B	4g	4b
I6	4BB	4G	4g	4dd
=17	=17	=17	=17	=17
I64	4D	4B	4g	4dd
D:I6	4F#	4d	4f#	4a
IV6	4B	4d	4g	4g
V7	4A	4G	4c#	4e
=18	=18	=18	=18	=18
I;	2D;	2F#;	2A;	2d;
.	4r	4ry	4ry	4r
vi	4BB	4F#	4d	4d
=19	=19	=19	=19	=19
G:vi	8EL	8GL	8BL	8gL
IV	8EJ	8cJ	8eJ	8gJ
V6	4F#	4A	4d	4a
I	4G	4G	4B	4b
I6	4B	4G	4B	4dd
=20	=20	=20	=20	=20
a:V65	4G#	4B	4e	4dd
i	4A	4A	4e	4cc
v	4E	4G	4e	4b
i6	4C	4E	4e	4a
=21	=21	=21	=21	=21
G:ii6	4C	4A	4c	4e
V7	4D	4A	4c	4f#
I;	4GG;	4G;	4B;	4g;
V	4D	4F#	4d	4a
=22	=22	=22	=22	=22
I	4GG	4G	4d	4b
I6	4BB	4G	4d	4g
IV	2C	2G	2c	2e
=23	=23	=23	=23	=23
I;	4G;	4G;	4B;	4d;
V6	4F#	4A	4d	4a
I	4G	4G	4d	4b
vi	4E	4G	4e	4b
=24	=24	=24	=24	=24
ii65	4C	4G	4e	4a
V7	4D	4F#	4c	4a
I;	4GG;	4D;	4B;	4g;
==	==	==	==	==
*-	*-	*-	*-	*-
!!!YOR1: 371 vierstimmige Choralges&auml;nge von Johann Sebastian Bach, 
!!!YOR2: 4th ed. by Alfred D&ouml;rffel (Leipzig: Breitkopf und H&auml;rtel, 
!!!YOR2: c.1875). 178 pp. Plate "V.A.10".  reprint: J.S. Bach, 371 Four-Part 
!!!YOR4: Chorales (New York: Associated Music Publishers, Inc., c.1940).
!!!SMS: B&H, 4th ed, Alfred D&ouml;rffel, c.1875, plate V.A.10
!!!EED:  Craig Stuart Sapp
!!!EEV:  2009/05/22
